X: 57
T: Al Almanın Dördünü
C: Necati Coşkun
O: Turkey
F: http://compmusic.upf.edu/node/140
N: gerdaniye--turku--nimsofyan--al_almanin--malatya
N: makam= gerdaniye
N: form= turku
N: usul= nimsofyan = 2/4
M: 2/4
L: 1/16
K: C _2/4B ^3/4f  
Q: 1/4=78
%%MIDI tuningsystem comma53
z2cd e2ed  | dce2 eddc  | cBdd dccB  | 
w:   |   |   | 
BAAc cBdB  | BA3 A4  | z2cd e2ed  | dce2 eddc  | 
w:   |   |   |   | 
cBdd dccB  | BAAc cBdB  | BA3 A4  | z2fg gfg2  | 
w:   |   |   |  Al_ al ma nın   | 
gfg2 gffe  | fefg gfed  | ede=f fedc  | 
w:  dör *  dü nü    |  Uy_ a *  *  man   |  yâr_ a *  *  man   | 
dced d4  | z2cd ee2d  | dce2 eddc  | cBdd dccB  | 
w:  uy_ a *  *  man    |  Sev  yi ği din   |  mer *  di ni    |  Kız  *  ben_ ö lem   | 
B3/2A/Ac cBdB  | BA3 A4  | z2cd ee2d  | \
w:  yâr  *  ben_ ö lem  *  kö  |  len_ o lam    |  Sev  yi ği din   | 
dce2 eddc  | 
w:  mer *  di ni    | 
cBdd dccB  | B3/2A/Ac cBdB  | BA3 A4  | \
w:  Kız  *  ben_ ö lem   |  yâr  *  ben_ ö lem  *  kö  |  len_ o lam    | 
z2fg gfg2  | 
w:  Se ver sen  *  gü  | 
gfg2 gffe  | fefg gfed  | ede=f fedc  | 
w:  ze *  li  sev    |  Uy_ a *  *  man   |  yâr_ a *  *  man   | 
dced d4  | z2cd e2ed  | dce2 eddc  | cBdd dccB  | 
w:  uy_ a *  *  man    |  Çek me  çir kin   |  der *  di ni    |  Kız  *  ben_ ö lem   | 
B3/2A/Ac cBdB  | BA3 A4  | z2cd e2ed  | \
w:  yâr  *  ben_ ö lem  *  kö  |  len_ o lam    |  Çek me  çir kin   | 
dce2 eddc  | 
w:  der *  di ni    | 
cBdd dccB  | B3/2A/Ac cBdB  | BA3 A4  | |


